X:1
T:The True and Trembling Brakeman
M:4/4
L:1/8
K:C
 Ac| e6 Be| e d3- d2 GB| d4- d/2d/2 dc d| e6| ee| g4- ge fe| d A3- A2 Bc|\
 d4- de fB| c6||

